X:650
T: WENN ICH NACH WAPPUSHOF GEH
N: E0600
O: Europa, Mitteleuropa, Deutschland, Franken
R: Liebes - Lied
M: 3/8
L: 1/16
K: D
 | D2F2G2 | E2G2G2 | F6 |
A2A2dA | A3GEG | F4z2 |
A2AdA2 | G2GeG2 |
F2DAF2 | EDEFE2 |
D2F2F2 | A2G2GB | A6 |
DFAdA2 | A3GEG | F4z2

@@@ Tune index: 4300
